icons/mail-lock-line.svg

<svg viewBox="0 0 24 24" fill="currentColor" xmlns="http://www.w3.org/2000/svg"><path d="M20 7.23792L12.0718 14.338L4 7.21594V19H13V21H3C2.44772 21 2 20.5523 2 20V4C2 3.44772 2.44772 3 3 3H21C21.5523 3 22 3.44772 22 4V11H20V7.23792ZM19.501 5H4.51146L12.0619 11.662L19.501 5ZM22 17H23V22H15V17H16V16C16 14.3431 17.3431 13 19 13C20.6569 13 22 14.3431 22 16V17ZM20 17V16C20 15.4477 19.5523 15 19 15C18.4477 15 18 15.4477 18 16V17H20Z"/></svg>

<svg xmlns="http://www.w3.org/2000/svg" viewBox="0 0 24 24">
    <g>
        <path fill="none" d="M0 0h24v24H0z"/>
        <path d="M20 7.238l-7.928 7.1L4 7.216V19h9v2H3a1 1 0 0 1-1-1V4a1 1 0 0 1 1-1h18a1 1 0 0 1 1 1v7h-2V7.238zM19.501 5H4.511l7.55 6.662L19.502 5zM22 17h1v5h-8v-5h1v-1a3 3 0 0 1 6 0v1zm-2 0v-1a1 1 0 0 0-2 0v1h2z"/>
    </g>
</svg>
